!!!COM: Scarlatti, Domenico
!!!CDT: 1685///-1757///
!!!OTL: Sonata in C Major, K.251, L.305
!!!SCT: K. 251
!!!SCT: L. 305
**kern	**kern	**dynam
*staff2	*staff1	*staff1/2
*Icemba	*Icemba	*Icemba
*>[A,A,B,B]	*>[A,A,B,B]	*>[A,A,B,B]
*>norep[A,B]	*>norep[A,B]	*>norep[A,B]
*>A	*>A	*>A
*clefF4	*clefG2	*clefG2
*k[]	*k[]	*k[]
*C:	*C:	*C:
*M3/8	*M3/8	*M3/8
*MM144	*MM144	*MM144
=1-	=1-	=1-
4.r	8cc'\L	f
.	8g'\	.
.	8cc'\J	.
=2	=2	=2
4.r	8ee'\L	.
.	8cc'\	.
.	8ee'\J	.
=3	=3	=3
4.r	(16aa\LL	.
.	16ff\	.
.	16gg\	.
.	16ee\	.
.	16ff\	.
.	16dd\JJ	.
=4	=4	=4
8c'\L	4ee\	.
8G'\	.	.
8c'\J	8gg\)	.
=5	=5	=5
8e'\L	(4cc\	.
8c'\	.	.
8e'\J	8gg\)	.
=6	=6	=6
16a\LL	(8ff\L	.
16f\	.	.
16g\	8ee\	.
16e\	.	.
16f\	8dd\J	.
16d\JJ	.	.
=7	=7	=7
8e'\L	8cc'\L)	.
8d'\	8b'\	.
8e'\J	8cc'\J	.
=8	=8	=8
*^	*	*
(8f/L	8F\	(16a\LL	.
.	.	16aa\J	.
8e'/)	4G\	8cc'\)	.
8d'/J	.	8b'\J	.
*v	*v	*	*
=9	=9	=9
.	(bq/	.
(8c\L	4.cc\)	.
8C\J)	.	.
8r	.	.
=10	=10	=10
*^	*	*
8c/L	4.c\	16r	.
.	.	(16cc\LL	p
8e/	.	16dd\	.
.	.	16cc\	.
8g/J	.	16ee\	.
.	.	16ff\JJ	.
=11	=11	=11	=11
8B/L	(4.B\	4aa\	>
8d/	.	.	.
8g/J)	.	8gg\)	.
=12	=12	=12	=12
8c/L	(4.c\	16r	.
.	.	(16cc\LL	.
8e/	.	16dd\	.
.	.	16cc\	.
8g/J)	.	16ee\	.
.	.	16ff#\JJ)	.
=13	=13	=13	=13
.	.	ff#q/	.
8B/L	(4.B\	4.gg\	.
8d/	.	.	.
8g/J)	.	.	.
=14	=14	=14	=14
8c/L	(4.c\	16r	.
.	.	(16cc\LL	.
8e/	.	16dd\	.
.	.	16cc\	.
8g/J)	.	16ee\	.
.	.	16ff#\JJ)	.
=15	=15	=15	=15
.	.	ff#q/	.
(8B/L	4.B\	4.gg\	.
8d/	.	.	.
8g/J)	.	.	.
*v	*v	*	*
=16	=16	=16
4.G\	16r	.
.	(16g/LL	p
.	16f#/	.
.	16g/	.
.	16a/	.
.	16b/JJ	.
=17	=17	=17
4.A\	16cc/LL	.
.	16a/	.
.	16g#/	.
.	16a/	.
.	16b/	.
.	16cc/JJ	.
=18	=18	=18
4.B\	16dd\LL	.
.	16b\	.
.	16a\	.
.	16b\	.
.	16cc\	.
.	16dd\JJ	.
=19	=19	=19
4c\	16ee\LL	.
.	16dd\	.
.	16cc\	.
.	16dd\	.
8A\	16ee\	.
.	16ff#\JJ	.
=20	=20	=20
16r	4gg\	f
(16G\LL	.	.
16F#\	.	.
16G\	.	.
16A\	8dd\)	.
16B\JJ	.	.
=21	=21	=21
16c\LL	8ee'\L	.
16A\	.	.
16G#\	8cc'\	.
16A\	.	.
16B\	8ee'\J	.
16c\JJ	.	.
=22	=22	=22
16d\LL	8ff#'\L	.
16B\	.	.
16A\	8dd'\	.
16B\	.	.
16c\	8ff#'\J	.
16d\JJ	.	.
=23	=23	=23
16e\LL	8gg'\L	.
16d\	.	.
16c\	8ee'\	.
16d\	.	.
16e\	[8cc^\J	.
16f#\JJ	.	.
=24	=24	=24
8g'\L)	8cc\L]	.
8G'\	16b\L	.
.	16dd\	.
8B'\J	16gg\	.
.	16ff#\JJ	.
=25	=25	=25
(4c\	16ee\LL	.
.	16dd\	.
.	16cc\	.
.	16b\	.
8C/	16a\	.
.	16g\JJ	.
=26	=26	=26
8.D\L)	16f#/LL	.
.	16e/J	.
.	8d'/J	.
(16c\L	.	.
16B\	8r	.
16A\JJ	.	.
=27	=27	=27
8G\)	16r	.
.	16g/LL	p
16r	16f#/	.
(16G\LL	16g/JJ	.
16F#\	8gg'\	.
16G\JJ	.	.
=28	=28	=28
16g\)	16r	.
16r	16g/LL	<
16r	16f#/	.
(16E\LL	16g/JJ	.
16D#\	8gg'\	.
16E\JJ	.	.
=29	=29	=29
16g'\)	16r	.
16r	16g/LL	.
16r	16f#/	.
(16C/LL	16g/JJ	.
16BB/	8gg'\	.
16C/JJ	.	.
=30	=30	=30
16g'\)	16r	.
16r	16g/LL	.
16r	16f#/	.
(16BB/LL	16g/JJ	.
16AA/	8gg'\	.
16BB/JJ	.	.
=31	=31	=31
16g'\)	16r	.
16r	16g/LL	.
8r	16f#/	.
.	16g/JJ	.
8BB'\ 8G'\	16gg\LL	f
.	16ff#\JJ	.
=32	=32	=32
*^	*	*
4G/	8C\	(16ff#\LL	.
.	.	16ee\)	.
.	4D\	(16ee\	.
.	.	16dd\)	.
8F#/	.	(16dd\	.
.	.	16cc\JJ	.
*v	*v	*	*
=33	=33	=33
8GG'/ 8G'/	16b/LL	>
.	16g/	.
16r	16f#/	p
(16G\LL	16g/JJ	.
16F#\	8gg'\)	.
16G\JJ	.	.
=34	=34	=34
16g'\)	16r	.
16r	16g/LL	.
16r	16f#/	.
(16E\LL	16g/JJ	.
16D#\	8gg'\	.
16E\JJ	.	.
=35	=35	=35
16g'\)	16r	.
16r	16g/LL	.
16r	16f#/	.
(16C/LL	16g/JJ	.
16BB/	8gg'\	.
16C/JJ	.	.
=36	=36	=36
16g'\)	16r	.
16r	16g/LL	.
16r	16f#/	.
(16BB/LL	16g/JJ	.
16AA/	8gg'\	.
16BB/JJ	.	.
=37	=37	=37
16g'\)	16r	.
16r	16g/LL	.
8r	16f#/	.
.	16g/JJ	.
8BB'\ 8G'\	16gg\LL	f
.	16ff#\JJ	.
=38	=38	=38
*^	*	*
4G/	8C\	(16ff#\LL	.
.	.	16ee\)	.
.	4D\	(16ee\	.
.	.	16dd\)	.
8F#/	.	(16dd\	.
.	.	16cc\JJ	.
*v	*v	*	*
=39	=39	=39
4GG/ 4G/	16b\LL	.
.	16bb\	.
.	16gg\	.
.	16dd\	.
8BB'\ 8G'\	16b\	.
.	16dd\JJ)	.
=40	=40	=40
4AA/ 4G/	(16dd\LL	.
.	16ee\JJ)	.
.	(ddq/	.
.	(4cc\)	.
8AA'/ 8F#'/	.	.
=41	=41	=41
*^	*	*
4.G/	(8GG\L	(16b\LL)	.
.	.	16gg\	.
.	8AA\	16dd\	.
.	.	16b\	.
.	8BB\J	16g\	.
.	.	16b\JJ)	.
=42	=42	=42	=42
4G/	8C'\)	16b\LL	.
.	.	16cc\JJ	.
.	.	bq/	.
.	(4D^\	4a/	.
8F#/	.	.	.
*v	*v	*	*
=43	=43	=43
4GG/) 4G/	16g\LL	.
.	16bb\	.
.	16gg\	.
.	16dd\	.
8BB'\ 8G'\	16b\	.
.	16dd\JJ	.
=44	=44	=44
4AA/ 4G/	(16dd\LL	.
.	16ee\JJ)	.
.	ddq/	.
.	(4cc\	.
8AA'/ 8F#'/	.	.
=45	=45	=45
*^	*	*
4.G/	(8GG\L	(16b\LL)	.
.	.	16gg\	.
.	8AA\	16dd\	.
.	.	16b\	.
.	8BB\J	16g\	.
.	.	16b\JJ)	.
=46	=46	=46	=46
4G/	8C'\)	16b\LL	.
.	.	16cc\JJ	.
.	.	bq/	.
.	(4D\	4a/	.
8F#/	.	.	.
*v	*v	*	*
=47	=47	=47
4.GG/) 4.G/	4.g/	.
=48:|!|:	=48:|!|:	=48:|!|:
*>B	*>B	*>B
*^	*	*
8G'/L	(4.G\	16r	.
.	.	(16b\LL	p
8B/	.	16g\	.
.	.	16a\	.
8e/J)	.	16b\	.
.	.	16ee\JJ)	.
=49	=49	=49	=49
8F#/L	(4.F#\	(4ee\	>
8A/	.	.	.
8B/J)	.	8dd#\)	.
=50	=50	=50	=50
8E/L	(4.E\	16r	.
.	.	(16b\LL	.
8G/	.	16g\	.
.	.	16a\	.
8B/J)	.	16b\	.
.	.	16gg'\JJ)	.
=51	=51	=51	=51
8BB/L	(4.BB\	(4gg\	>
8F#/	.	.	.
8B/J)	.	8ff#\)	.
=52	=52	=52	=52
8G/L	(4.G\	16r	.
.	.	(16b\LL	p
8B/	.	16g\	.
.	.	16a\	.
8e/J)	.	16b\	.
.	.	16ee\JJ)	.
=53	=53	=53	=53
(8Fn/L	4.Fn\	(4ee\	>
8A/	.	.	.
8d/J)	.	8ddn\)	.
=54	=54	=54	=54
8E/L	(4.E\	16r	.
.	.	(16dd\LL	.
8B/	.	16b\	.
.	.	16cc\	.
8e/J)	.	16dd\	.
.	.	16gg#\JJ)	.
=55	=55	=55	=55
8AA/L	(4.AA\	(4gg#\	>
8E/	.	.	.
8A/J)	.	8aa\)	.
=56	=56	=56	=56
8A/L	(4.A\	16r	.
.	.	(16ee\LL	<
8e/	.	16cc#\	.
.	.	16dd\	.
8a/J)	.	16ee\	.
.	.	16aa\JJ)	.
=57	=57	=57	=57
8B-/L	(4.B-\	(4aa\	>
8d/	.	.	.
8g/J)	.	8gg\)	.
=58	=58	=58	=58
8A/L	(4.A\	16r	.
.	.	(16gg\LL	.
8e/	.	16ee\	.
.	.	16ff\	.
8a/J)	.	16gg\	.
.	.	16ccc#\JJ)	.
=59	=59	=59	=59
8D/L	(4.D\	(4ccc#\	>
8A/	.	.	.
8d/J)	.	8ddd\)	.
=60	=60	=60	=60
8B-/L	(4.B-\	16r	.
.	.	(16dd\LL	.
8d/	.	16b-\	.
.	.	16cc\	.
8f/J)	.	16dd\	.
.	.	16ddd\JJ)	.
=61	=61	=61	=61
8A/L	(4.A\	(4ddd\	f
8c/	.	.	.
8f/J)	.	8ccc\)	.
=62	=62	=62	=62
8G/L	(4.G\	16r	.
.	.	(16b-\LL	.
8B-/	.	16g\	.
.	.	16a\	.
8d/J)	.	16b-\	.
.	.	16bb-\JJ)	.
=63	=63	=63	=63
8F/L	(4.F\	(4bb-\	>
8A/	.	.	.
8d/J)	.	8aa\)	.
=64	=64	=64	=64
8E-/L	(4.E-\	16r	.
.	.	(16g\LL	>
8G/	.	16e-\	.
.	.	16f\	.
8B-/J)	.	16g\	.
.	.	16gg\JJ)	.
=65	=65	=65	=65
8D/L	(4.D\	(4gg\	>
8F/	.	.	.
8B-/J)	.	8ff\)	.
=66	=66	=66	=66
8C/L	(4.C\	16r	.
.	.	(16e-/LL	.
8E-/	.	16c/	.
.	.	16d/	.
8G/J)	.	16e-/	.
.	.	16ee-/JJ)	.
=67	=67	=67	=67
8BB-/L	(4.BB-\	(4ee-\	>
8D/	.	.	.
8G/J)	.	8dd\)	.
=68	=68	=68	=68
8AA-/L	(4.AA-\	16r	.
.	.	(16c/LL	p
8C/	.	16A-/	.
.	.	16B-/	.
8E-/J)	.	16c/	.
.	.	16cc/JJ)	.
=69	=69	=69	=69
8GG/L	(4.GG\	(4cc\	>
8BB-/	.	.	.
8E-/J)	.	8b-\)	.
=70	=70	=70	=70
8FF/L	(4.FF\	16r	.
.	.	(16A-/LL	.
8AA-/	.	16F/	.
.	.	16G/	.
8C/J)	.	16A-/	.
.	.	16a-/JJ)	.
*v	*v	*	*
=71	=71	=71
(8EE-/L	(8a-/L	>
8E-/)	8g/J)	.
8D-'/J	8r	.
=72	=72	=72
4.CC/ 4.C/	16r	.
.	(16f/LL	<
.	16en/	.
.	16f/	.
.	16g/	.
.	16b-/JJ)	.
=73	=73	=73
(8FF/L	(8g/ 8b-/	>
8F/)	4f/) 4an/	.
8E-'/J	.	.
=74	=74	=74
4.DD/ 4.D/	16r	.
.	16g/LL	p
.	16f#/	.
.	16g/	.
.	16a/	.
.	16cc/JJ	.
=75	=75	=75
4GG/ 4G/	16bn/LL	.
.	16g/	.
.	16f#/	.
.	16g/	.
8G'\ 8fn'\	16a/	.
.	16b/JJ	.
=76	=76	=76
*^	*	*
(8e/L	4.G\	16cc/LL	.
.	.	16g/	.
8d/	.	16f#/	.
.	.	16g/	.
8c/J	.	16b/	.
.	.	16cc/JJ	.
=77	=77	=77	=77
8B/L	4.G\	16dd/LL	.
.	.	16g/	.
8A/	.	16f#/	.
.	.	16g/	.
8G/J)	.	16cc/	.
.	.	16dd/JJ	.
=78	=78	=78	=78
(8c/L	4.G\	16ee\LL	.
.	.	16g\	.
8B/	.	16f#\	.
.	.	16g\	.
8c/J	.	16dd\	.
.	.	16ee\JJ	.
=79	=79	=79	=79
8d/L	4.G\	16ffn\LL	.
.	.	16g\	.
8c/	.	16f#\	.
.	.	16g\	.
8d/J	.	16ee\	.
.	.	16ffn\JJ	.
=80	=80	=80	=80
8e/L	4.G\	16gg\LL	.
.	.	16g\	.
8d/	.	16f#\	.
.	.	16g\	.
8e/J)	.	16ffn\	.
.	.	16gg\JJ	.
=81	=81	=81	=81
8F/L	(4.F\	16aa\LL	f
.	.	16gg\	.
8f/	.	16ff\	.
.	.	16ee\	.
8F/J	.	16dd\	.
.	.	16cc\JJ	.
*v	*v	*	*
=82	=82	=82
8.G\L)	16b/LL	.
.	16a/J	.
.	8g'/J	>
(16f\L	.	.
16e\	8r	.
16d\JJ	.	.
=83	=83	=83
8c\)	16r	.
.	16cc\LL	p
16r	16b\	.
(16c\LL	16cc\J	.
16B\	8ccc\J	.
16c\JJ	.	.
*clefG2	*	*
=84	=84	=84
16cc'\)	16r	.
16r	16cc\LL	<
16r	16b\	.
*clefF4	*	*
(16A\LL	16cc\J	.
16G#\	8ccc'\J	.
16A\JJ	.	.
*clefG2	*	*
=85	=85	=85
16cc\)	16r	.
16r	16cc\LL	.
16r	16b\	.
*clefF4	*	*
(16F\LL	16cc\J	.
16E\	8ccc'\J	.
16F\JJ	.	.
*clefG2	*	*
=86	=86	=86
16cc'\)	16r	.
16r	16cc\LL	.
16r	16b\	.
*clefF4	*	*
(16E\LL	16cc\J	.
16D\	8ccc'\J	.
16E\JJ	.	.
*clefG2	*	*
=87	=87	=87
16cc'\)	16r	.
16r	16cc\LL	.
8r	16b\	.
.	16cc\	.
*clefF4	*	*
8E'\ 8c'\	16ccc\	f
.	16bb\JJ	.
=88	=88	=88
*^	*	*
4c/	8F\	(16bb\LL	.
.	.	16aa\)	.
.	4G\	(16aa\	.
.	.	16gg\)	.
8B/	.	(16gg\	.
.	.	16ff\JJ	.
*v	*v	*	*
=89	=89	=89
8C'\ 8c'\	16ee\LL	>
.	16cc\	.
16r	16b\	p
(16c\LL	16cc\J	.
16B\	8ccc'\J)	.
16c\JJ	.	.
*clefG2	*	*
=90	=90	=90
16cc'\)	16r	.
16r	16cc\LL	<
16r	16b\	.
*clefF4	*	*
(16A\LL	16cc\J	.
16G#\	8ccc'\J	.
16A\JJ	.	.
*clefG2	*	*
=91	=91	=91
16cc\)	16r	.
16r	16cc\LL	.
16r	16b\	.
*clefF4	*	*
(16F\LL	16cc\J	.
16E\	8ccc'\J	.
16F\JJ	.	.
*clefG2	*	*
=92	=92	=92
16cc'\)	16r	.
16r	16cc\LL	.
16r	16b\	.
*clefF4	*	*
(16E\LL	16cc\J	.
16D\	8ccc'\J	.
16E\JJ	.	.
*clefG2	*	*
=93	=93	=93
16cc'\)	16r	.
16r	16cc\LL	.
8r	16b\	.
.	16cc\	f
*clefF4	*	*
8E'\ 8c'\	16ccc\	.
.	16bb\JJ	.
=94	=94	=94
*^	*	*
4c/	8F\	(16bb\LL	.
.	.	16aa\)	.
.	4G\	(16aa\	.
.	.	16gg\)	.
8B/	.	(16gg\	.
.	.	16ff\JJ	.
=95	=95	=95	=95
4.c/	8C\L	16ee\LL	.
.	.	16ccc\	.
.	8D\	16gg\	.
.	.	16ee\	.
.	8E\J	16cc\	.
.	.	16g\JJ	.
*v	*v	*	*
=96	=96	=96
8F\L	16d\LL	.
.	16gg\JJ)	.
.	(ggq/	.
8G\	(4ff\)	.
8GG\J	.	.
=97	=97	=97
8C\L	16ee\LL)	.
.	(16gg\	.
8D\	16ee\	.
.	16cc\	.
8E\J	16g\	.
.	16e\JJ	.
=98	=98	=98
8F\L	16d/LL	.
.	16ee/JJ	.
.	(eeq/)	.
8G\	(4dd\)	.
8GG\J	.	.
=99	=99	=99
8C\L	16cc\LL)	.
.	(16ccc\	.
8D\	16gg\	.
.	16ee\	.
8E\J	16cc\	.
.	16g\JJ	.
=100	=100	=100
8F\L	16d\LL	.
.	16gg\JJ)	.
.	ggq/	.
8G\	(4ff\	.
8GG\J	.	.
=101	=101	=101
8C\L	16ee\LL)	.
.	(16gg\	.
8D\	16ee\	.
.	16cc\	.
8E\J	16g\	.
.	16e\JJ	.
=102	=102	=102
8F\L	16d/LL	.
.	16cc/JJ)	.
8G'\	(4d/	.
8GG'\J	.	.
=103	=103	=103
4.C^/	4.c^/)	.
==:|!	==:|!	==:|!
*-	*-	*-
!!!ENC: Craig Stuart Sapp
!!!END: 2004/11/06/
